X:1
T:Guide Me
T:Charles Hutchinson Gabriel
T:Guide Me
T:Public Domain
T:Public Domain
C:Charles Hutchinson Gabriel
Z:Public Domain
%%score ( 1 2 ) ( 3 4 )
L:1/8
M:3/4
K:D
V:1 treble 
V:2 treble 
V:3 bass 
V:4 bass 
V:1
 [DF][DE] D | [FA]3 [GB] [DF][CE] | D3 D DD | [Dd]4 [GB]2 | [FA]3 [FA] [FA][EA] | %5
w: 1.~Hide not Thy|O Lord of Grace;|Thou who hast tast-|ror’s night|lend Thou Thy light|
w: 2.~On Cal- v’ry’s|a thief to Thee|Turned his re- pent-|the gloom|of death’s dark doom|
w: 3.~E’en so thro’|of bur- dened years|Earth’s child- ren cry|was spilt|that hu- man guilt|
w: 4.~Con- trite they|their ev- ery need,|Thy grace will e’en|last breath,|thro’ gloom of death,|
 [EB]3 [EB] [Ec][Ed] | [Ec]4 [Ec]2 | [Dd]3 [EG] [DF][CE] | D4 z2 | (z2 C2) [CB]2 | z2 D2 [FA]2 | %11
w: To guide me as|I go!|Guide me, guide me,|in|* world|* woe;|
w: Thou gav- est Par-|a- dise!|Guide me, guide me,|guard|* with|* eyes,|
w: Be par- doned, full|and free!|Guide me, guide me,|hear|* cry|* Thee,|
w: Guide Thou the way-|ward still!|Guide me, guide me,|that|* do|* will,|
 [FB]3 [FB] [^GB][Gd] | [Gc]3 [EA] [DA][GA] | [Fd]3 [Fd] [Gd][Ad] | [Gd]4 D2 | %15
w: * er- ror’s night|lend Thou Thy light|To guide me as|I go!|
w: * for the gloom|of death’s dark doom|Thou gav- est Par-|a- dise!|
w: * blood was spilt|that hu- man guilt|Be par- doned, full|and free!|
w: * life’s last breath,|thro’ gloom of death,|Guide Thou the way-|ward still!|
 [DA]3 [EG] [DF][CE] | D3 |] %17
w: ||
w: ||
w: ||
w: ||
V:2
 x2 D | x6 | D3 D DD | x6 | x6 | x6 | x6 | x6 | D4 x2 | E4 x2 | F4 x2 | x6 | x6 | x6 | x4 D2 | x6 | %16
w: face,||ed woe; Thro’ er-||||||this|of|Thro’||||||
w: tree||ant eyes, And for||||||me|Thine|And||||||
w: tears||to Thee, Whose blood||||||my|to|Whose||||||
w: plead||ful- fill, To life’s||||||I|Thy|To||||||
 D3 |] %17
w: |
w: |
w: |
w: |
V:3
 [D,A,][D,G,] [D,F,] | [D,D]3 [G,D] A,[A,,G,] | [D,F,]3 [D,F,] [E,G,][F,A,] | [G,B,]4 [G,D]2 | %4
 [D,D]3 [D,D] [D,D][C,A,] | [E,^G,]3 [E,G,] [E,A,][E,B,] | A,4 [G,A,]2 | [F,A,]3 [G,B,] A,[A,,G,] | %8
 [F,A,]4 z2 | z2 [A,,G,]2 [A,,G,]2 | z2 [D,A,]2 [D,D]2 | [B,,D]3 [B,,D] [E,D][E,E] | %12
 [A,E]3 [A,D] [F,E][E,C] | [D,A,]3 [D,A,] [E,A,][F,=C] | [G,B,]4 [G,_B,]2 | %15
 [F,A,]3 [G,B,] A,[A,,G,] | [D,F,]3 |] %17
V:4
 x3 | x4 A, x | x6 | x6 | x6 | x6 | A,4 x2 | x4 A, x | x6 | x6 | x6 | x6 | x6 | x6 | x6 | x4 A, x | %16
 x3 |] %17

